X:1
T:Articulate Test - Context-Aware Note Length
M:4/4
L:1/4
Q:1/4=120
K:C
%%ARTICULATE auto
%%MIDI program 0
% repeated notes (should shorten), then a leap (should lengthen)
C C C D | E G A B |
% phrase ending before rest (should sustain), then staccato passage
c2 z2 | .C .D .E .F |
% mixed: leaps, repeated, phrase-end before barline
G A B c | c B A G |
% large leap (>4th) followed by repeated notes
C G c G | E E E E |
% phrase ending into final barline
G A B c |]
